X: 88
T: Happy Hollow
C:Marcus Martin (1941)
B: canberra pickers and fiddlers
B: old time tunes update
B: tunes
M:C|
L:1/8
R: reel
Q: 1/4=100
K:A
V:1 
"A"A2EF A2EF|AFED CA,3|"E"[B,3E3](B c)BAB|cBAF "A"A2A2|!
"A"Bc2c- cBAB|cBAF EC2B,|A,B,CD ECE2|1"E"FA2[BF] "A"A2 (3EFG:|2"E"FA2F "A"A4|]!
|:"E"B2E2 B3B|"A"cBAF EC3|"E"B2E2 B3B |"A"cBAF A2A2 |!
"A"Bc2(B c)BAB|cBAF EC2B,|A,B,CD ECE2|1"E"FA2F "A"A2AA:|2"E"FA2F "A"A4|]
% abcbook-tune_id 67a7d9ecbda22b7c76a37892
% abcbook-tune_composer_id 
% abcbook-link-0 https://www.youtube.com/watch?v=ZMM8UUgs1kI
% abcbook-link-title-0 “Happy Hollow” from Marcus Martin
% abcbook-boost 0
% abcbook-difficulty 0
% abcbook-tags old time tunes
% abcbook-tablature 
% abcbook-transpose 
% abcbook-tuning AEAC#
% abcbook-lastupdated 1739165252934
% abcbook-src-url 
% abcbook-soundfonts 
% abcbook-repeats 1
%%gchordfont "itim-music,Itim" 20

